X:13
T:Ma chre ame(???)(in D). JJo.013
T:Ma chère amie. JJo.013
S:J.Jones MS,1801,N.Shrops.
N:The last line appears to be a bridge between verses of a song,
N:possibly played by a piano accompanist. Title very difficult to interprete.
N:(could it be Irish?)NB…More likely French – Ma Chère Amie.CGP.
Z:Neil Brookes 2006
M:2/4
L:1/8
Q:1/2=60
K:D
d2d>d|a2e2|f2a/g/f/e/|dc2z|d2d>d|a2e2|f2e/c/d/c/|A3A|!
g>agf|fed2|c/d/e/f/ gf|f2e>A|g>agf|fed2|c/d/e/f/ gf|f2e2|!
f2g/f/g/e/|a>f d’z|f2g/f/g/e/|a>f d’z|\
a2g/f/e/d/|b>c’d’2|d2e/g/f/e/|d4|!
d/f/a/d’/ c’/d’/a/f/|d/B/d/f/ e/g/f/e/|\
d/f/a/d’/ c’/d’/a/f/|d/B/d/f/ e/g/f/e/|e2d2|]

